X:3893
T:La Gloire de Mon Pere
L:1/4
Q:1/4=160
K:E dorian
 E e E/2e/2 d/2c/2 | B A/2G/2 F E/2D/2 | E e e/2e/2 d/2c/2 | B c/2d/2 c A |
   E e E/2e/2 d/2c/2 | B c/2d/2 c A | G c/2d/2c B/2A/2 | G/2E/2 F/2G/2 A/2A/2G/2F/2 |
 E E/2e e/2 d/2c/2 | B A/2G/2 F E/2D/2 | E e E/2e/2 d/2c/2 | B c/2d/2 c A |
   c d-d/2 e/2 d/2c/2 | B c/2d/2 c A | G c/2d/2c B/2A/2 | G/2E/2 F/2G/2 A D ||
|: A c/2d/2 c A | c/2d/2 c G G/2F/2 | E e/2d/2 c/2d/2 e/2c/2 | d/2c/2 B/2A/2 c A |
    A c/2d/2 c A | c/2d/2 F G2 |[1  G/2F/2E/2D/2 E E/2F/2 | G/2d/2 c A2 :| [2 G/2F/2E/2D/2 E e/2d/2 | c B  A2 |]

